X: 4626
T: Bovaglie's Plaid
R: strathspey
M: 4/4
K: Gmajor
G|"C"ED/B/ "G"D>E G>A B>G|"C"cB/A/ "G"{A}dB "Am"{B}AG (E/G) z/|"G"ED/B/ D>E G>A"C"B>c|"G"dB/G/ "D7"F/c/z/F/ "G"{F}G2 G:|
de/f/|"G"gf/e/ (3 dBG "C"(3 ecG "G"(3 dBG|(3BDG (3(Bdg) "D"{Bc}B>A(A>d)|"G"gf/e/ (3dBG "C"(3EGc "G"(3 DGB|"Am"(3cEA "D7"D/c/z/F/ "G"{F}(G2 G) de/f/|"G"{f}(3gfe (3dBG "C"(3ecG "G"(3dBG|"G"gd/c/ BA/G/ "D"A>AA G/F/|"C"EF/G/ "G"DF/G/ "Am"cf/g/ "G"{Bc}(3 BAG|(3dBG "D7"F/c/z/F/ "G"G2 G||

